svg/about/customer.svg

<svg width="44" height="53" viewBox="0 0 44 53" fill="none" xmlns="http://www.w3.org/2000/svg">
<path fill-rule="evenodd" clip-rule="evenodd" d="M11.005 36.2327L14.3637 34.6414C18.3078 32.8586 20.6387 33.8842 23.9358 35.152C27.7127 36.6069 29.1411 37.0955 30.7082 37.714C33.5211 38.8277 32.2225 42.5055 29.4052 41.7594C27.6929 41.306 23.216 40.0096 21.9659 39.7103C20.5572 39.3713 19.919 41.0353 21.255 41.5107C23.6893 42.3757 27.1162 43.2495 28.9452 43.7271C30.7742 44.2069 31.7955 43.4079 33.0853 42.3823C35.0794 40.7976 39.6178 35.9796 39.6178 35.9796C41.4711 34.221 44 35.6825 44 37.5643C44 38.0705 43.8173 38.6076 43.3925 39.1204C38.2686 45.2678 36.6575 47.1364 33.3384 50.6228C31.9672 52.0644 30.3847 52.7665 28.4874 52.7665C27.5146 52.7665 26.4581 52.5817 25.3114 52.2163C21.2946 50.9375 16.1289 49.3264 11.005 48.6947V36.2327ZM8.80396 50.6228H0V33.0149H8.80396V50.6228ZM11.005 33.3032V29.5307C10.9917 26.1037 11.1414 24.1449 15.0856 23.2337C19.4061 22.2366 24.5829 21.343 22.5337 17.5617C16.4568 6.35426 20.8016 0 27.3253 0C33.7236 0 38.1762 6.11875 32.1169 17.5617C30.1272 21.321 35.1498 22.2146 39.565 23.2337C43.5246 24.1471 43.6566 26.1192 43.6434 29.5703C43.6434 29.8564 43.6192 32.1477 43.6434 33.235C42.5804 32.5549 40.4696 32.02 38.8299 33.4683C37.6523 34.5071 37.5797 34.5776 34.9055 37.0537C31.0538 35.2247 25.0979 32.9092 21.2286 31.5996C19.2565 30.9305 16.7385 30.9217 14.7092 31.7647L11.005 33.3032Z" fill="#E95C6D"/>
</svg>

<svg width="44" height="53" viewBox="0 0 44 53" fill="none" xmlns="http://www.w3.org/2000/svg"><path fill-rule="evenodd" clip-rule="evenodd" d="M11.005 36.233l3.359-1.592c3.944-1.782 6.275-.757 9.572.511 3.777 1.455 5.205 1.944 6.772 2.562 2.813 1.114 1.514 4.791-1.303 4.045-1.712-.453-6.189-1.75-7.44-2.049-1.408-.339-2.046 1.325-.71 1.8 2.434.866 5.861 1.74 7.69 2.217 1.83.48 2.85-.32 4.14-1.345 1.994-1.584 6.533-6.402 6.533-6.402C41.47 34.22 44 35.683 44 37.564c0 .507-.183 1.044-.608 1.556-5.123 6.148-6.735 8.016-10.054 11.503-1.37 1.441-2.953 2.144-4.85 2.144-.973 0-2.03-.185-3.177-.55-4.016-1.28-9.182-2.89-14.306-3.522V36.233zm-2.201 14.39H0V33.015h8.804v17.608zm2.201-17.32v-3.772c-.013-3.427.136-5.386 4.08-6.297 4.321-.997 9.498-1.891 7.449-5.672C16.457 6.354 20.802 0 27.325 0c6.399 0 10.851 6.119 4.792 17.562-1.99 3.759 3.033 4.653 7.448 5.672 3.96.913 4.092 2.885 4.078 6.336 0 .286-.024 2.578 0 3.665-1.063-.68-3.173-1.215-4.813.233-1.178 1.04-1.25 1.11-3.924 3.586-3.852-1.83-9.808-4.145-13.677-5.454-1.973-.67-4.49-.678-6.52.165l-3.704 1.538z" fill="#E95C6D"/></svg>
